X:1
T: The Gued Man of Ballangigh
N:12 March 1997
C:
S:
A:
O:
R:
M:6/8
K:A
I:speed 180
%W:     A
% voice 1 (1 lines, 16 notes)
K:A
M:6/8
L:1/16
A2 e4e4 f2 e6 c6 A2 B2 c2 B4 A2 A2 B2 c2 B4 A2 |
%W:
% voice 1 (1 lines, 13 notes)
A2 e4e4 f2 e6 c6 A2 B2 c2 B4 A2 A6A6 |
%W:     B
% voice 1 (1 lines, 18 notes)
d4 e2 f2 e2 d2 d4 e2 f2 e2 d2 d4 e2 f4 g2 a6a4 g f |
%W:
% voice 1 (1 lines, 14 notes)
e2 c4 e2 c4 e2 c4 e6 A2 B2 c2 B4 A2 A6A6 |
%W:     A
% voice 1 (1 lines, 16 notes)
K:a
A4 e2e4 f2 e6 c6 A2 B2 c2 B4 A2 A2 B2 c2 B4 A2 |
%W:
% voice 1 (1 lines, 13 notes)
A2 e4e4 f2 e6 c6 A2 B2 c2 B4 A2 A6A6 |
%W:     B
% voice 1 (1 lines, 18 notes)
d4 e2 f2 e2 d2 d4 e2 f2 e2 d2 d4 e2 f4 g2 a6a4 g f |
%W:
% voice 1 (1 lines, 14 notes)
e2 c4 e2 c4 e2 c4 e6 A2 B2 c2 B4 A2 A6A6 |
